src/static/img/quotes-left.svg

<svg aria-hidden="true" width="40" height="36" viewBox="0 0 40 36" fill="none" xmlns="http://www.w3.org/2000/svg">
<path d="M36.25 18H30V13C30 10.2656 32.1875 8 35 8H35.625C36.6406 8 37.5 7.21875 37.5 6.125V2.375C37.5 1.35938 36.6406 0.5 35.625 0.5H35C28.0469 0.5 22.5 6.125 22.5 13V31.75C22.5 33.8594 24.1406 35.5 26.25 35.5H36.25C38.2812 35.5 40 33.8594 40 31.75V21.75C40 19.7188 38.2812 18 36.25 18ZM13.75 18H7.5V13C7.5 10.2656 9.6875 8 12.5 8H13.125C14.1406 8 15 7.21875 15 6.125V2.375C15 1.35938 14.1406 0.5 13.125 0.5H12.5C5.54688 0.5 0 6.125 0 13V31.75C0 33.8594 1.64062 35.5 3.75 35.5H13.75C15.7812 35.5 17.5 33.8594 17.5 31.75V21.75C17.5 19.7188 15.7812 18 13.75 18Z" fill="white"/>
</svg>

<svg aria-hidden="true" width="40" height="36" fill="none" xmlns="http://www.w3.org/2000/svg"><path d="M36.25 18H30v-5c0-2.734 2.188-5 5-5h.625c1.016 0 1.875-.781 1.875-1.875v-3.75C37.5 1.359 36.64.5 35.625.5H35C28.047.5 22.5 6.125 22.5 13v18.75c0 2.11 1.64 3.75 3.75 3.75h10A3.75 3.75 0 0 0 40 31.75v-10c0-2.031-1.719-3.75-3.75-3.75Zm-22.5 0H7.5v-5c0-2.734 2.188-5 5-5h.625C14.141 8 15 7.219 15 6.125v-3.75C15 1.359 14.14.5 13.125.5H12.5C5.547.5 0 6.125 0 13v18.75c0 2.11 1.64 3.75 3.75 3.75h10a3.75 3.75 0 0 0 3.75-3.75v-10c0-2.031-1.719-3.75-3.75-3.75Z" fill="#fff"/></svg>
